icons/filled/brand-bitbucket.svg

<svg xmlns="http://www.w3.org/2000/svg" width="24" height="24" viewBox="0 0 24 24" fill="currentColor"><path d="M3.661 3l16.68 .007c.484 -.005 .946 .203 1.262 .57c.316 .368 .454 .856 .364 1.396l-3.338 14.651a1.64 1.64 0 0 1 -1.629 1.376h-10.01c-.906 -.009 -1.678 -.668 -1.82 -1.517l-3.148 -14.576a1.64 1.64 0 0 1 1.639 -1.907m11.339 5h-6a1 1 0 0 0 -.986 1.164l1 6a1 1 0 0 0 .986 .836h4a1 1 0 0 0 .986 -.836l1 -6a1 1 0 0 0 -.986 -1.164"/></svg>

<svg xmlns="http://www.w3.org/2000/svg" width="24" height="24" fill="currentColor"><path d="m3.661 3 16.68.007c.484-.005.946.203 1.262.57.316.368.454.856.364 1.396l-3.338 14.651A1.64 1.64 0 0 1 17 21H6.99c-.906-.009-1.678-.668-1.82-1.517L2.022 4.907A1.64 1.64 0 0 1 3.661 3M15 8H9a1 1 0 0 0-.986 1.164l1 6A1 1 0 0 0 10 16h4a1 1 0 0 0 .986-.836l1-6A1 1 0 0 0 15 8"/></svg>
